X:1
T:Kost ar c'hoat : Melioneg (TBI 1401)
Z:Roger Ngaret (Novembre 99)
C:Trad.
S:Tonio Breizh-Izel (Polig Monjarret)
A:Bretagne
M:4/4
Q:70
K:Eb
G/F/G E>E GG F2 |1 GA Bc B/G/B G z :|2 DE (3FAG E z E2 |:
B2 GE A/G/A FG/A/ | FF B2 AF GE | G2 ED/E/ GE F>F |
DB, CD E/D/E/F/ E z :: G2 E2 G/F/G F2 |1 GA B>B AF G<E :|2
GG/A/ GE F/E/F/D/ E2 |: B/A/B GE A2 (3FAG | ED/E/ FA G/A/F/G/ E2 |
B/A/B G>G A/G/A F2 |1 DB, C/B,/C/D/ E2 E2 :|2 B/A/B c/B/c/d/ e2 e z |]
